public/images/icons/heart.svg

<svg fill="none" height="62" viewBox="0 0 77 62" width="77" xmlns="http://www.w3.org/2000/svg"><path d="m38.4503 59c15.7201-7.604 26.1615-16.1318 31.4813-24.8919 4.5046-7.4177 5.0656-14.6504 2.2372-20.6004-2.5681-5.40261-7.7857-9.26018-13.7957-10.25414-6.4149-1.06093-12.9432 1.20638-18.1188 6.82144l-1.804 1.957-1.8039-1.957c-5.1757-5.61506-11.704-7.88237-18.1189-6.82144-6.01.99396-11.22754 4.85153-13.79565 10.25414-2.82836 5.95-2.26741 13.1827 2.23721 20.6004 5.31974 8.7601 15.76124 17.2879 31.48124 24.8919z" fill="#fff" stroke="#bf0020" stroke-linecap="round" stroke-linejoin="round" stroke-width="5.81379"/><path d="m36.8504 37.629-4.2768 2.1975c-.437.2245-.9777.0604-1.2076-.3666-.0915-.17-.1231-.3648-.0899-.5542l.8172-4.6566c.1912-1.0897-.1785-2.2015-.9887-2.9733l-3.4616-3.2979c-.3536-.3368-.3607-.8899-.016-1.2353.1373-.1375.3171-.227.5116-.2546l4.7825-.6792c1.1203-.1591 2.0886-.8466 2.5895-1.8385l2.1387-4.2353c.2185-.4327.7547-.6104 1.1975-.397.1765.0851.3193.2246.4063.397l2.1387 4.2353c.5009.9919 1.4693 1.6794 2.5895 1.8385l4.7825.6792c.4887.0694.8273.5127.7563.9901-.0283.1901-.1199.3657-.2606.4998l-3.4617 3.2979c-.8102.7718-1.1799 1.8836-.9886 2.9733l.8171 4.6566c.0835.4755-.2434.9271-.7302 1.0086-.1938.0325-.3932.0016-.5673-.0878l-4.2767-2.1975c-1.0022-.515-2.1996-.515-3.2017 0z" fill="#0027dc"/></svg>

<svg width="77" height="62" viewBox="0 0 77 62" fill="none" xmlns="http://www.w3.org/2000/svg">
<path d="M38.4503 59C54.1704 51.396 64.6118 42.8682 69.9316 34.1081C74.4362 26.6904 74.9972 19.4577 72.1688 13.5077C69.6007 8.10509 64.3831 4.24752 58.3731 3.25356C51.9582 2.19263 45.4299 4.45994 40.2543 10.075L38.4503 12.032L36.6464 10.075C31.4707 4.45994 24.9424 2.19263 18.5275 3.25356C12.5175 4.24752 7.29996 8.10509 4.73185 13.5077C1.90349 19.4577 2.46444 26.6904 6.96906 34.1081C12.2888 42.8682 22.7303 51.396 38.4503 59Z" fill="white" stroke="#BF0020" stroke-width="5.81379" stroke-linecap="round" stroke-linejoin="round"/>
<path d="M36.8504 37.629L32.5736 39.8265C32.1366 40.051 31.5959 39.8869 31.366 39.4599C31.2745 39.2899 31.2429 39.0951 31.2761 38.9057L32.0933 34.2491C32.2845 33.1594 31.9148 32.0476 31.1046 31.2758L27.643 27.9779C27.2894 27.6411 27.2823 27.088 27.627 26.7426C27.7643 26.6051 27.9441 26.5156 28.1386 26.488L32.9211 25.8088C34.0414 25.6497 35.0097 24.9622 35.5106 23.9703L37.6493 19.735C37.8678 19.3023 38.404 19.1246 38.8468 19.338C39.0233 19.4231 39.1661 19.5626 39.2531 19.735L41.3918 23.9703C41.8927 24.9622 42.8611 25.6497 43.9813 25.8088L48.7638 26.488C49.2525 26.5574 49.5911 27.0007 49.5201 27.4781C49.4918 27.6682 49.4002 27.8438 49.2595 27.9779L45.7978 31.2758C44.9876 32.0476 44.6179 33.1594 44.8092 34.2491L45.6263 38.9057C45.7098 39.3812 45.3829 39.8328 44.8961 39.9143C44.7023 39.9468 44.5029 39.9159 44.3288 39.8265L40.0521 37.629C39.0499 37.114 37.8525 37.114 36.8504 37.629Z" fill="#0027DC"/>
</svg>
